svgs/sharp-regular/watch-apple.svg

<svg xmlns="http://www.w3.org/2000/svg" viewBox="0 0 384 512"><!--! Font Awesome Pro 6.6.0 by @fontawesome - https://fontawesome.com License - https://fontawesome.com/license (Commercial License) Copyright 2024 Fonticons, Inc. --><path d="M320 0L64 0l0 64L48 64 0 64l0 48L0 400l0 48 48 0 16 0 0 64 256 0 0-64 16 0 48 0 0-48 0-288 0-48-48 0-16 0 0-64zm16 112l0 288L48 400l0-288 288 0zM192 288a32 32 0 1 0 0-64 32 32 0 1 0 0 64zm64 40a24 24 0 1 0 -48 0 24 24 0 1 0 48 0zM152 352a24 24 0 1 0 0-48 24 24 0 1 0 0 48zM256 184a24 24 0 1 0 -48 0 24 24 0 1 0 48 0zM152 208a24 24 0 1 0 0-48 24 24 0 1 0 0 48zm-8 48a24 24 0 1 0 -48 0 24 24 0 1 0 48 0zm120 24a24 24 0 1 0 0-48 24 24 0 1 0 0 48z"/></svg>

<svg xmlns="http://www.w3.org/2000/svg" viewBox="0 0 384 512"><!--! Font Awesome Pro 6.4.2 by @fontawesome - https://fontawesome.com License - https://fontawesome.com/license (Commercial License) Copyright 2023 Fonticons, Inc. --><path d="M320 0H64V64H48 0v48V400v48H48 64v64H320V448h16 48V400 112 64H336 320V0zm16 112V400H48V112H336zM192 288a32 32 0 1 0 0-64 32 32 0 1 0 0 64zm64 40a24 24 0 1 0 -48 0 24 24 0 1 0 48 0zM152 352a24 24 0 1 0 0-48 24 24 0 1 0 0 48zM256 184a24 24 0 1 0 -48 0 24 24 0 1 0 48 0zM152 208a24 24 0 1 0 0-48 24 24 0 1 0 0 48zm-8 48a24 24 0 1 0 -48 0 24 24 0 1 0 48 0zm120 24a24 24 0 1 0 0-48 24 24 0 1 0 0 48z"/></svg>
